assets/svg/moving-clock.svg

<svg width="73" height="70" viewBox="0 0 73 70" fill="none" xmlns="http://www.w3.org/2000/svg">
<path d="M72.7824 38.3683C72.1276 31.7827 69.1854 25.574 64.4975 20.8859C60.4912 16.8798 55.5877 14.3054 50.428 13.1607V9.5418C52.5354 9.01752 54.1018 7.10996 54.1018 4.84262C54.1018 2.17234 51.9295 0 49.2592 0H39.0043C36.334 0 34.1617 2.17234 34.1617 4.84262C34.1617 7.10981 35.7281 9.01738 37.8354 9.5418V13.1708C32.6915 14.3203 27.8042 16.8912 23.8093 20.8861C22.935 21.7603 22.1289 22.6774 21.391 23.6305C21.3552 23.6278 21.3195 23.6251 21.283 23.6251H11.1333C10.3468 23.6251 9.70902 24.2628 9.70902 25.0494C9.70902 25.8361 10.3468 26.4737 11.1333 26.4737H19.4529C18.4086 28.2221 17.5666 30.0581 16.9256 31.9482H1.4243C0.637801 31.9482 0 32.5858 0 33.3725C0 34.1591 0.637801 34.7968 1.4243 34.7968H16.1208C15.7103 36.5986 15.4747 38.4324 15.4139 40.2713H9.11551C8.32901 40.2713 7.69121 40.909 7.69121 41.6956C7.69121 42.4823 8.32901 43.1199 9.11551 43.1199H15.4593C15.5795 44.9635 15.8759 46.7975 16.3487 48.5945H7.12149C6.33499 48.5945 5.69719 49.2322 5.69719 50.0188C5.69719 50.8054 6.33499 51.4431 7.12149 51.4431H17.2577C18.6549 55.1393 20.8385 58.6036 23.8093 61.5744C28.5018 66.2669 34.7168 69.2098 41.3094 69.8611C42.2502 69.954 43.1919 70 44.1322 70C49.6901 70 55.1773 68.3915 59.8334 65.3595C60.4925 64.9302 60.679 64.0479 60.2497 63.3887C59.8204 62.7295 58.938 62.5431 58.2789 62.9724C48.087 69.6092 34.4375 68.1742 25.8235 59.5602C15.7164 49.4531 15.7164 33.0077 25.8235 22.9004C35.9305 12.7935 52.3759 12.7935 62.4831 22.9004C71.0857 31.5032 72.5286 45.141 65.9137 55.3279C65.4853 55.9876 65.6728 56.8698 66.3324 57.2981C66.9924 57.7265 67.8744 57.539 68.3027 56.8792C71.8369 51.4363 73.4279 44.8624 72.7824 38.3683ZM37.0103 4.84276C37.0103 3.7432 37.9047 2.84874 39.0043 2.84874H49.2592C50.3588 2.84874 51.2532 3.7432 51.2532 4.84276C51.2532 5.94232 50.3588 6.83678 49.2592 6.83678H39.0043C37.9047 6.83678 37.0103 5.94217 37.0103 4.84276ZM40.6839 12.6811V9.68537H47.5794V12.676C45.2897 12.4036 42.9732 12.4054 40.6839 12.6811Z" fill="#6ABF16"/>
<path d="M63.4909 59.1423C63.1149 59.1423 62.7489 59.2947 62.4841 59.5596C62.2178 59.8245 62.0667 60.192 62.0667 60.5666C62.0667 60.9412 62.2178 61.3086 62.4841 61.5736C62.7489 61.8399 63.1151 61.9909 63.4909 61.9909C63.8655 61.9909 64.2316 61.8399 64.4979 61.5736C64.7628 61.3086 64.9152 60.9412 64.9152 60.5666C64.9152 60.192 64.763 59.8245 64.4979 59.5596C64.2316 59.2947 63.8654 59.1423 63.4909 59.1423Z" fill="#6ABF16"/>
<path d="M44.1534 19.135C31.9702 19.135 22.0584 29.0467 22.0584 41.23C22.0584 53.4134 31.9702 63.3251 44.1534 63.3251C56.3366 63.3251 66.2484 53.4134 66.2484 41.23C66.2484 29.0467 56.3366 19.135 44.1534 19.135ZM44.1534 60.4765C33.5408 60.4765 24.907 51.8425 24.907 41.23C24.907 30.6176 33.5408 21.9836 44.1534 21.9836C54.766 21.9836 63.3998 30.6176 63.3998 41.23C63.3998 51.8425 54.766 60.4765 44.1534 60.4765Z" fill="#6ABF16"/>
<path d="M53.1629 30.2063L46.1084 37.2607C45.5184 36.969 44.8549 36.8042 44.1534 36.8042C43.4518 36.8042 42.7883 36.969 42.1984 37.2607L39.0412 34.1034C38.4848 33.5472 37.5833 33.5472 37.0268 34.1034C36.4706 34.6596 36.4706 35.5615 37.0268 36.1177L40.184 39.2749C39.8922 39.8649 39.7275 40.5284 39.7275 41.2299C39.7275 43.6703 41.7129 45.6558 44.1534 45.6558C46.5939 45.6558 48.5793 43.6703 48.5793 41.2299C48.5793 40.5284 48.4145 39.8649 48.1228 39.2749L55.1772 32.2205C55.7334 31.6643 55.7334 30.7625 55.1772 30.2063C54.621 29.6501 53.7194 29.6501 53.1629 30.2063ZM44.1534 42.8073C43.2837 42.8073 42.5761 42.0997 42.5761 41.23C42.5761 40.3604 43.2837 39.6528 44.1534 39.6528C45.0231 39.6528 45.7307 40.3604 45.7307 41.23C45.7307 42.0997 45.0231 42.8073 44.1534 42.8073Z" fill="#6ABF16"/>
<path d="M59.3818 39.8231H58.0622C57.2757 39.8231 56.6379 40.4608 56.6379 41.2474C56.6379 42.034 57.2757 42.6717 58.0622 42.6717H59.3818C60.1683 42.6717 60.8061 42.034 60.8061 41.2474C60.8061 40.4608 60.1683 39.8231 59.3818 39.8231Z" fill="#6ABF16"/>
<path d="M30.2444 39.7884H28.9249C28.1384 39.7884 27.5006 40.426 27.5006 41.2127C27.5006 41.9993 28.1384 42.6369 28.9249 42.6369H30.2444C31.0309 42.6369 31.6686 41.9993 31.6686 41.2127C31.6686 40.426 31.0309 39.7884 30.2444 39.7884Z" fill="#6ABF16"/>
<path d="M44.1707 28.7453C44.9572 28.7453 45.595 28.1076 45.595 27.321V26.0016C45.595 25.2149 44.9572 24.5773 44.1707 24.5773C43.3843 24.5773 42.7465 25.2149 42.7465 26.0016V27.321C42.7465 28.1076 43.3843 28.7453 44.1707 28.7453Z" fill="#6ABF16"/>
<path d="M44.136 53.7147C43.3495 53.7147 42.7117 54.3524 42.7117 55.139V56.4585C42.7117 57.2451 43.3495 57.8827 44.136 57.8827C44.9225 57.8827 45.5603 57.2451 45.5603 56.4585V55.139C45.5603 54.3524 44.9225 53.7147 44.136 53.7147Z" fill="#6ABF16"/>
<path d="M1.42428 48.594C1.04969 48.594 0.682229 48.7464 0.417313 49.0113C0.152398 49.2762 3.21848e-07 49.6437 3.21848e-07 50.0182C3.21848e-07 50.3942 0.152255 50.7603 0.417313 51.0252C0.682371 51.2901 1.04969 51.4425 1.42428 51.4425C1.79886 51.4425 2.16632 51.2901 2.4311 51.0252C2.69601 50.7603 2.84855 50.3928 2.84855 50.0182C2.84855 49.6437 2.69616 49.2762 2.4311 49.0113C2.16632 48.7464 1.79886 48.594 1.42428 48.594Z" fill="#6ABF16"/>
</svg>

<svg width="73" height="70" fill="none" xmlns="http://www.w3.org/2000/svg"><path d="M72.782 38.368a28.826 28.826 0 00-8.284-17.482 28.6 28.6 0 00-14.07-7.725V9.54a4.85 4.85 0 003.674-4.698A4.848 4.848 0 0049.259 0H39.004a4.848 4.848 0 00-4.842 4.843 4.85 4.85 0 003.673 4.699v3.629a28.598 28.598 0 00-14.026 7.715 28.895 28.895 0 00-2.418 2.745c-.036-.003-.071-.006-.108-.006h-10.15a1.424 1.424 0 000 2.849h8.32a28.557 28.557 0 00-2.527 5.474H1.424a1.424 1.424 0 000 2.849h14.697a28.955 28.955 0 00-.707 5.474H9.116a1.424 1.424 0 000 2.849h6.343a28.91 28.91 0 00.89 5.474H7.12a1.424 1.424 0 000 2.85h10.137a28.603 28.603 0 006.551 10.13 28.823 28.823 0 0017.5 8.287c.941.093 1.883.139 2.823.139 5.558 0 11.045-1.609 15.701-4.64a1.424 1.424 0 00-1.554-2.388c-10.192 6.637-23.842 5.202-32.456-3.412-10.107-10.107-10.107-26.552 0-36.66 10.108-10.106 26.553-10.106 36.66 0 8.603 8.603 10.046 22.241 3.43 32.428a1.424 1.424 0 102.39 1.551c3.534-5.443 5.125-12.017 4.48-18.51zM37.01 4.843c0-1.1.895-1.994 1.994-1.994H49.26c1.1 0 1.994.894 1.994 1.994s-.894 1.994-1.994 1.994H39.004c-1.1 0-1.994-.895-1.994-1.994zm3.674 7.838V9.685h6.895v2.991a29.02 29.02 0 00-6.895.005z" fill="#6ABF16"/><path d="M63.49 59.142a1.43 1.43 0 00-1.424 1.424 1.426 1.426 0 002.431 1.007c.266-.264.418-.632.418-1.006 0-.375-.152-.742-.417-1.007a1.438 1.438 0 00-1.007-.418zM44.153 19.135c-12.183 0-22.095 9.912-22.095 22.095 0 12.183 9.912 22.095 22.095 22.095 12.184 0 22.095-9.912 22.095-22.095 0-12.183-9.911-22.095-22.095-22.095zm0 41.341c-10.612 0-19.246-8.633-19.246-19.246 0-10.612 8.634-19.246 19.246-19.246 10.613 0 19.247 8.634 19.247 19.246 0 10.613-8.634 19.247-19.247 19.247z" fill="#6ABF16"/><path d="M53.163 30.206l-7.055 7.055a4.399 4.399 0 00-1.955-.457c-.701 0-1.365.165-1.955.457l-3.157-3.158a1.425 1.425 0 00-2.014 2.015l3.157 3.157a4.398 4.398 0 00-.456 1.955 4.43 4.43 0 004.425 4.426 4.43 4.43 0 004.426-4.426c0-.702-.165-1.365-.456-1.955l7.054-7.054a1.424 1.424 0 10-2.014-2.015zm-9.01 12.601a1.58 1.58 0 01-1.577-1.577c0-.87.708-1.577 1.577-1.577.87 0 1.578.707 1.578 1.577a1.58 1.58 0 01-1.578 1.577zM59.382 39.823h-1.32a1.424 1.424 0 000 2.849h1.32a1.424 1.424 0 000-2.849zM30.244 39.788h-1.32a1.424 1.424 0 000 2.849h1.32a1.424 1.424 0 000-2.849zM44.17 28.745c.787 0 1.425-.637 1.425-1.424v-1.32a1.424 1.424 0 00-2.849 0v1.32c0 .787.638 1.424 1.425 1.424zM44.136 53.715c-.787 0-1.424.637-1.424 1.424v1.32a1.424 1.424 0 002.848 0v-1.32c0-.787-.638-1.424-1.424-1.424zM1.424 48.594c-.374 0-.742.152-1.007.417A1.435 1.435 0 000 50.018c0 .376.152.742.417 1.007.265.265.633.418 1.007.418.375 0 .742-.153 1.007-.418.265-.265.418-.632.418-1.007 0-.374-.153-.742-.418-1.007a1.435 1.435 0 00-1.007-.417z" fill="#6ABF16"/></svg>
